X: 492
T: Bülbül-i Dil...
C: Ahmet Avni Konuk
O: Turkey
F: http://compmusic.upf.edu/node/140
N: goncairana--kupe--musemmen--bulbul-i--ahmet_avni_konuk
N: makam= goncairana
N: form= kupe
N: usul= musemmen = 8/8
M: 8/8
L: 1/16
K: C    
Q: 1/4=96
%%MIDI tuningsystem comma53
d4 d^cBA Bcd4z2  | efe2 d2eg fee/d/d/^c/ d2z2  | 
w:  Bül bül_ *  i  *  *  *  dil   |  Gon *  *  ca  i  *  *  *  Râ  | 
ed^c2 d2e4e4a2  | a2g2 ^1/4feag =fed^c d2z2  | \
w:  nâ *  *  ya  ol du   |  müp *  te *  lâ    | 
d4 d2^cd edd4z2  | 
w:  Ol  se bep *  *  *  ten   | 
d2^c2 e2d2 c2d2 cBB2  | B4 ^cBA4B2 c2d2  | \
w:  nâ *  le  vü  *  fer  |  yâd_ e *  der  subh_  | 
egf2 efed d^cd4z2  | 
w:  u  *  *  me *  sâ    | 
|


